X:1
T:Mighty Mississippi
M:2/2
L:1/2
K:F
 A c| A F| G/2 F/2 G/2 A/2| G D| E F| G- G/2E/4-D/4| C B| A2| A c|\
 A F| G/2 F/2 G/2 A/2| G D| E F| G- G/2E/4-D/4| C G| F2|
